X:51
T: Der betruegerische Freier
N: Q0042E
O: Mitteleuropa, Deutschland (BRD) , Rheinprovinz, Duesseldorf, Itter
R: Ballade, Braut - Werbung, Betrug; tragisch
M: 6/8
L: 1/16
K: A
EE | A4B2c4F2 | F4E2E4
E2 | A4B2c4A2 | B6-B4
B2 | d4d2B4A2 | c4d2e4z2 |
G4c2B4A2 | G4F2E4
E2 | A4A2A4A2 | A4c2e4
ed | c2c2ccB4B2 | A6-A4

@@@ Tune index: 787
